!!!COM: Fux, Johann Joseph
!!!OMD: Gradus ad Parnassum Exercise
!!!YEC: CC0 1.0 Universal (Public Domain). Mark Gotham and FourScoreAndMore.org waive all rights to this document.
**kern	**kern	**kern
*part3	*part2	*part1
*staff3	*staff2	*staff1
*I"3	*I"2	*I"1
*I'Pno	*I'Pno	*I'Pno
!!LO:PB:g=z
*clefF4	*clefG2	*clefG2
*k[]	*k[]	*k[]
!!LO:TX:omd:t=
*M4/4	*M4/4	*M4/4
=287	=287	=287
!	!	!LO:TX:a:t=Fig. 130; Species&colon; 3; Modal final&colon; d; Cantus firmus&colon; 2
1D	1d	4a/
.	.	4d/
.	.	4f/
.	.	4g/
=288	=288	=288
1D	1f	4a/
.	.	4f/
.	.	4a/
.	.	4b\
=289	=289	=289
1C	1e	4cc\
.	.	4b\
.	.	4g/
.	.	4a/
=290	=290	=290
1G	1d	4b\
.	.	4cc\
.	.	4dd\
.	.	4b\
=291	=291	=291
1E	1g	4ee\
.	.	4dd\
.	.	4b\
.	.	4cc#X\
!!LO:LB:g=z
=292	=292	=292
1D	1f	4dd\
.	.	4ff\
.	.	4ee\
.	.	4dd\
=293	=293	=293
1F	1a	4cc\
.	.	4a/
.	.	4cc\
.	.	4dd\
=294	=294	=294
1C	1g	4ee\
.	.	4dd\
.	.	4cc\
.	.	4b\
=295	=295	=295
1D	1f	4a/
.	.	4d/
.	.	4a/
.	.	4b\
=296	=296	=296
1A	1e	4cc#X\
.	.	4a/
.	.	4b\
.	.	4cc#\
=297	=297	=297
1D	1d	1dd
==	==	==
*-	*-	*-
!!!software: music21 v.9.7.1
!!!software: music21 v.9.7.1
!!!software: MuseScore 3.4.2
!!!RDF**kern: > = above
!!!RDF**kern: < = below
